!!!!SEGMENT: pl-kk--kk-i-1--002-001_ruffo-vincenzo--missa-alma-redemptoris-mater-kyrie.krn
!!!cenid: 15xx:658
!!!COM: Ruffo, Vincenzo
!!!COM-rismID: pe30002765
!!!CDT: ~1508-1587
!!!CNT: Italian
!!!OPR: Missa Alma redemptoris mater
!!!OTL: Kyrie
!!!OMV: 001
!!!PDT:
!!!AGN:
!!!SMS-siglum: PL-Kk
!!!SMS-shelfmark: Kk.I.1
!!!SMS-shelfwork: 002-001 M
!!!SMS-variant:
!!!SMS-altvar:
!!!NIFC-rismSourceID: 300257956
!!!NIFC-islandoraID: pl-kk:1
!!!URL-pdf-islandora: https://repozytorium.nifc.pl/islandora/object/pl-kk%3A1/datastream/PDF/view
!!!URL-scan: https://polish.musicsources.pl/pl/lokalizacje/galeria/rekopisy/5736 @EN{Scan on Polish Music Sources Website} @PL{Skany w portalu Dziedzictwo Muzyki Polskiej w otwartym dostępie}
!!!ONB-nifc: UWAGA: Cantus (s. 2r-11v, skan 0004-0014), Altus (s. 1r-12r, skan 0193-0204), Tenor (s. 2r-12r, skan 0390-0400), Bassus (s. 2r-12r, skan 0563-0573). Części Mszy: 1. Kyrie, 2. Et in terra, 3. Patrem, 4. Sanctus, 5. Agnus Dei
!!!AIN: 3 empty 1 tenor
!!!key:
**kern	**text	**kern	**text	**kern	**text	**kern	**text
*part4	*part4	*part3	*part3	*part2	*part2	*part1	*part1
*staff4	*staff4	*staff3	*staff3	*staff2	*staff2	*staff1	*staff1
*Iempty	*	*Itenor	*	*Iempty	*	*Iempty	*
*I"BASSVS	*	*I"TENOR	*	*I"ALTVS	*	*I"CANTVS	*
*I'B	*	*I'T	*	*I'A	*	*I'C	*
*clefF3	*	*clefC3	*	*clefC3	*	*clefC3	*
*k[b-]	*	*k[b-]	*	*k[b-]	*	*k[b-]	*
*F:	*	*F:	*	*F:	*	*F:	*
*M2/1	*	*M2/1	*	*M2/1	*	*M2/1	*
*met(C|)	*	*met(C|)	*	*met(C|)	*	*met(C|)	*
=1-	=1-	=1-	=1-	=1-	=1-	=1-	=1-
*xywh-#563:5711,522,4299,1011	*	*xywh-#390:5712,574,4441,914	*	*xywh-#193:5830,563,4264,1004	*	*xywh-#4:5704,641,4338,955	*
!LO:TX:a:B:t=Alma redemptoris mater	!	!LO:TX:a:B:t=Alma redemptoris mater.	!	!LO:TX:a:B:t=Alma redemptoris mr..	!	!LO:TX:a:B:t=Alma redemptoris.	!
00r	.	00r	.	0F/	Kÿ-	00r	.
=2-	=2-	=2-	=2-	=2-	=2-	=2-	=2-
*	*	*	*	*lig	*	*	*
.	.	.	.	1A/	-rie	.	.
.	.	.	.	1B-/	.	.	.
!	!	!	!	!	!	!LO:TX:t=P:problem=kreska pseudotaktowa	!
*	*	*	*	*Xlig	*	*	*
=3-	=3-	=3-	=3-	=3-	=3-	=3-	=3-
!	!	!	!	!LO:TX:t=P:problem=kreska pseudotaktowa	!	!	!
00r	.	00r	.	1c\	.	0F/	Kÿ-
.	.	.	.	2r	.	.	.
.	.	.	.	1c\	Kÿ-	.	.
=4-	=4-	=4-	=4-	=4-	=4-	=4-	=4-
*	*	*	*	*	*	*lig	*
.	.	.	.	.	.	1A/	-rie
!	!	!	!	!LO:TX:t=P:problem=kreska pseudotaktowa	!	!	!
.	.	.	.	2c/	-ri-	.	.
.	.	.	.	1d\	-e	1B-/	.
*	*	*	*	*	*	*Xlig	*
=5-	=5-	=5-	=5-	=5-	=5-	=5-	=5-
!	!	!LO:TX:t=P:problem=kreska pseudotaktowa	!	!LO:TX:t=P:problem=kreska pseudotaktowa	!	!LO:TX:t=P:problem=kreska pseudotaktowa	!
00r	.	1r	.	1e\	.	1c\	.
.	.	0F/	Kÿri-	1.f\	.	2r	.
.	.	.	.	.	.	2c/	Kÿ-
=6-	=6-	=6-	=6-	=6-	=6-	=6-	=6-
!	!	!	!	!	!	!LO:TX:t=P:problem=2\right&colon; global	!
.	.	.	.	.	.	2d/	.
.	.	.	.	4e/	.	1f\	-ri-
.	.	.	.	4d/	.	.	.
*	*	*lig	*	*	*	*	*
!	!	!	!	!LO:TX:t=P:problem=kreska pseudotaktowa	!	!	!
.	.	1A/	-e	1c\	.	.	.
*	*	*	*	*	*	*2\right	*
!	!	!	!	!	!	!LO:TX:t=P:problem=kreska pseudotaktowa	!
.	.	.	.	.	.	2e\	.
=7-	=7-	=7-	=7-	=7-	=7-	=7-	=7-
!LO:TX:t=P:problem=kreska pseudotaktowa	!	!	!	!	!	!	!
1r	.	1B-/	.	2r	.	2.d/	-e
*	*	*	*	*2\right	*	*	*
.	.	.	.	2f\	Kÿ-	.	.
.	.	.	.	.	.	8c/L	.
.	.	.	.	.	.	8B-/J	.
*	*	*Xlig	*	*	*	*	*
!	!	!LO:TX:t=P:problem=kreska pseudotaktowa	!	!	!	!LO:TX:t=P:problem=kreska pseudotaktowa	!
0F\	Ky-	1c\	.	1.f\	-ri-	1A/	.
=8-	=8-	=8-	=8-	=8-	=8-	=8-	=8-
.	.	2r	.	.	.	1.a\	Kÿ-
.	.	1c\	Kÿ-	4e\	.	.	.
*	*	*	*	*custos:e	*	*	*
!	!	!	!	!LO:TX:t=P:problem=kreska pseudotaktowa	!	!	!
.	.	.	.	4d\	.	.	.
*	*	*	*	*xywh-#193:5778,1491,4354,799	*	*	*
!	!	!	!	!LO:LB:g=original	!	!	!
1A\	-rie	.	.	2e\	.	.	.
!	!	!LO:TX:t=P:problem=kreska pseudotaktowa	!	!	!	!	!
.	.	2c/	-ri-	2f\	.	2a\	-ri-
=9-	=9-	=9-	=9-	=9-	=9-	=9-	=9-
1B-\	.	1d\	-e	1d\	-e	2.f\	-e-
!	!	!	!	!	!	!LO:TX:t=P:problem=kreska pseudotaktowa	!
.	.	.	.	.	.	4g\	.
!LO:TX:t=P:problem=kreska pseudotaktowa	!	!	!	!LO:TX:t=P:problem=kreska pseudotaktowa	!	!	!
1c\	.	1e\	.	1c\	.	4a\	.
*	*	*	*	*	*	*custos:g	*
.	.	.	.	.	.	4f\	.
*	*	*	*	*	*	*xywh-#4:5727,1515,4309,803	*
!	!	!	!	!	!	!LO:LB:g=original	!
.	.	.	.	.	.	2.g\	.
=10-	=10-	=10-	=10-	=10-	=10-	=10-	=10-
!	!	!LO:TX:t=P:problem=kreska pseudotaktowa	!	!	!	!	!
2r	.	1c\	.	2r	.	.	.
.	.	.	.	.	.	4f\	.
*	*	*	*	*	*	*col	*
1F\	Ky-	.	.	1c\	Kÿ-	4f\	.
.	.	.	.	.	.	8e\L	.
.	.	.	.	.	.	8d\J	.
*	*	*	*	*	*	*Xcol	*
!	!	!	!	!	!	!LO:TX:t=P:problem=kreska pseudotaktowa	!
.	.	2r	.	.	.	1c\	.
*	*	*2\right	*	*	*	*	*
!LO:TX:t=P:problem=kreska pseudotaktowa	!	!LO:TX:t=P:problem=kreska pseudotaktowa	!	!LO:TX:t=P:problem=kreska pseudotaktowa	!	!	!
2F/	-ri-	2f\	Kÿ-	2A/	.	.	.
=11-	=11-	=11-	=11-	=11-	=11-	=11-	=11-
1G\	.	2d\	.	1B-/	.	2r	.
.	.	2.e\	-ri-	.	.	2g\	-Kÿ-
2.A/	-e	.	.	2.c/	-ri-	2e\	.
*	*	*custos:c	*	*	*	*	*
.	.	4d/	.	.	.	.	.
*	*	*xywh-#390:5778,1399,4370,801	*	*	*	*	*
!	!	!LO:LB:g=original	!	!	!	!	!
.	.	2.c/	.	.	.	1a\	.
!LO:TX:t=P:problem=kreska pseudotaktowa	!	!	!	!LO:TX:t=P:problem=kreska pseudotaktowa	!	!	!
4G/	.	.	.	4B-/	.	.	.
=12-	=12-	=12-	=12-	=12-	=12-	=12-	=12-
2F/	.	.	.	4A/	.	.	.
.	.	4B-/	.	4G/	.	.	.
!	!	!LO:TX:t=P:problem=kreska pseudotaktowa	!	!	!	!	!
2E/	.	2G/	.	2.c/	-e-	2.g\	-ri-
*custos:C	*	*	*	*	*	*	*
!LO:TX:t=P:problem=kreska pseudotaktowa	!	!	!	!	!	!	!
1D/	.	2A/	.	.	.	.	.
.	.	.	.	8B-/L	.	4f\	.
.	.	.	.	8A/J	.	.	.
.	.	2F/	.	2B-/	.	1f\	-e
!LO:LB:g=original	!	!	!	!	!	!	!
=13-	=13-	=13-	=13-	=13-	=13-	=13-	=13-
*xywh-#563:5767,1330,4304,945	*	*	*	*	*	*	*
!LO:TX:t=P:problem=kreska pseudotaktowa	!	!	!	!LO:TX:t=P:problem=kreska pseudotaktowa	!	!	!
1C/	.	1G/	-e	0.c\	.	.	.
.	.	.	.	.	.	2e\	.
!	!	!LO:TX:t=P:problem=kreska pseudotaktowa	!	!	!	!LO:TX:t=P:problem=kreska pseudotaktowa	!
2r	.	1F/	.	.	.	0f\	.
1F\	-Ky-	.	.	.	.	.	.
=14-	=14-	=14-	=14-	=14-	=14-	=14-	=14-
.	.	2r	.	.	.	.	.
!LO:TX:t=P:problem=kreska pseudotaktowa	!	!	!	!	!	!	!
2F/	-ri-	1c\	Kÿ-	.	.	.	.
1A\	.	.	.	1r	.	1r	.
!	!	!LO:TX:t=P:problem=kreska pseudotaktowa	!	!	!	!	!
.	.	2c/	-ri-	.	.	.	.
=15-	=15-	=15-	=15-	=15-	=15-	=15-	=15-
1B-\	.	1d\	.	00r	.	00r	.
1c\	-e	2.e\	.	.	.	.	.
!	!	!LO:TX:t=P:problem=kreska pseudotaktowa	!	!	!	!	!
.	.	4d\	.	.	.	.	.
=16-	=16-	=16-	=16-	=16-	=16-	=16-	=16-
*2\right	*	*	*	*	*	*	*
2.A\	.	2e\	.	.	.	.	.
.	.	2f\	.	.	.	.	.
!LO:TX:t=P:problem=kreska pseudotaktowa	!	!	!	!	!	!	!
4B-\	.	.	.	.	.	.	.
2c\	.	2e\	.	.	.	.	.
2.d\	.	2.f\	.	.	.	.	.
=17-	=17-	=17-	=17-	=17-	=17-	=17-	=17-
!	!	!	!	!LO:TX:t=P:problem=kreska pseudotaktowa	!	!	!
.	.	.	.	2r	.	0r	.
4c\	.	4e\	.	.	.	.	.
1c\	.	4d/	.	1F/	-Kÿ-	.	.
!	!	!LO:TX:t=P:problem=kreska pseudotaktowa	!	!	!	!	!
.	.	4c/	.	.	.	.	.
*	*	*custos:c	*	*	*	*	*
!	!	!LO:TX:t=P:problem=kreska pseudotaktowa	!	!	!	!	!
.	.	1d\	-e	.	.	.	.
!	!	!	!	!LO:TX:t=P:problem=kreska pseudotaktowa	!	!	!
2B-\	.	.	.	2G/	.	.	.
!	!	!LO:LB:g=original	!	!	!	!	!
=18-	=18-	=18-	=18-	=18-	=18-	=18-	=18-
*	*	*xywh-#390:5835,2167,4294,758	*	*	*	*	*
!LO:TX:t=P:problem=kreska pseudotaktowa	!	!LO:TX:t=P:problem=kreska pseudotaktowa	!	!	!	!LO:TX:t=P:problem=kreska pseudotaktowa	!
0c\	.	1c\	.	2.A/	.	2r	.
.	.	.	.	.	.	1F/	Kÿ-
*	*	*	*	*custos:c	*	*	*
.	.	.	.	4B-/	.	.	.
*	*	*	*	*xywh-#193:5744,2139,4416,851	*	*	*
!	!	!	!	!LO:LB:g=original	!	!	!
.	.	2r	.	2c/	.	.	.
!	!	!	!	!LO:TX:t=P:problem=kreska pseudotaktowa	!	!LO:TX:t=P:problem=kreska pseudotaktowa	!
.	.	1c\	Kÿ-	2F/	.	2F/	-ri-
=19-	=19-	=19-	=19-	=19-	=19-	=19-	=19-
00r	.	.	.	2.c/	-ri-	2.A/	-e-
!	!	!LO:TX:t=P:problem=kreska pseudotaktowa	!	!	!	!	!
.	.	2c/	-ri-	.	.	.	.
.	.	.	.	4d\	.	4B-/	.
*	*	*	*	*	*	*custos:B	*
.	.	2A/	.	4e\	.	2c/	.
.	.	.	.	4c/	.	.	.
*	*	*	*	*	*	*xywh-#4:5718,2233,4328,807	*
!	!	!	!	!	!	!LO:LB:g=original	!
!	!	!	!	!	!	!LO:TX:t=P:problem=kreska pseudotaktowa	!
.	.	2.d\	.	2.f\	-e	2B-/	.
=20-	=20-	=20-	=20-	=20-	=20-	=20-	=20-
.	.	.	.	.	.	4A/	.
.	.	4c/	.	4e\	.	4F/	.
.	.	1c\	-e	4d\	.	1f\	.
!	!	!	!	!LO:TX:t=P:problem=kreska pseudotaktowa	!	!	!
.	.	.	.	4c\	.	.	.
.	.	.	.	1d\	.	.	.
.	.	2B-/	.	.	.	4e\	.
.	.	.	.	.	.	4d\	.
=21-	=21-	=21-	=21-	=21-	=21-	=21-	=21-
!	!	!LO:TX:t=P:problem=kreska pseudotaktowa	!	!LO:TX:t=P:problem=kreska pseudotaktowa	!	!LO:TX:t=P:problem=kreska pseudotaktowa	!
1.C/	-Ky-	1c\	.	1c\	.	0e\	.
.	.	1r	.	2r	.	.	.
!LO:TX:t=P:problem=kreska pseudotaktowa	!	!	!	!	!	!	!
2C/	-ri-	.	.	1c\	Kÿ-	.	.
=22-	=22-	=22-	=22-	=22-	=22-	=22-	=22-
2.F/	-e	2r	.	.	.	2r	.
!	!	!	!	!LO:TX:t=P:problem=kreska pseudotaktowa	!	!	!
.	.	1F/	Kÿ-	2c/	-ri-	1a\	-Kÿ-
4G/	.	.	.	.	.	.	.
2A\	.	.	.	1d\	.	.	.
*custos:c	*	*	*	*	*	*	*
!LO:TX:t=P:problem=kreska pseudotaktowa	!	!LO:TX:t=P:problem=kreska pseudotaktowa	!	!	!	!	!
2B-\	.	2G/	-ri-	.	.	4g\	.
!	!	!	!	!	!	!LO:TX:t=P:problem=kreska pseudotaktowa	!
.	.	.	.	.	.	4f\	.
!LO:LB:g=original	!	!	!	!	!	!	!
=23-	=23-	=23-	=23-	=23-	=23-	=23-	=23-
*xywh-#563:5739,2081,4299,930	*	*	*	*	*	*	*
!LO:TX:t=P:problem=kreska pseudotaktowa	!	!	!	!LO:TX:t=P:problem=kreska pseudotaktowa	!	!	!
1c\	.	2.A/	-e	1c\	.	1e\	-ri-
.	.	4B-/	.	.	.	.	.
2r	.	2c/	.	2F/	.	1.f\	.
!	!	!LO:TX:t=P:problem=kreska pseudotaktowa	!	!	!	!	!
1F\	.	2d/	.	1A/	.	.	.
=24-	=24-	=24-	=24-	=24-	=24-	=24-	=24-
.	.	1.c\	eleÿ-	.	.	.	.
!LO:TX:t=P:problem=kreska pseudotaktowa	!	!	!	!	!	!	!
2F/	ele-	.	.	4G/	.	4e\	.
!	!	!	!	!LO:TX:t=P:problem=kreska pseudotaktowa	!	!LO:TX:t=P:problem=kreska pseudotaktowa	!
.	.	.	.	4F/	.	4d\	.
*lig	*	*	*	*	*	*	*
*	*	*	*	*custos:c	*	*	*
1C/	-ÿ-	.	.	2G/	.	4e\	.
.	.	.	.	.	.	4f\	.
*	*	*	*	*xywh-#193:5711,2895,4431,899	*	*	*
!	!	!	!	!LO:LB:g=original	!	!	!
!	!	!LO:TX:t=P:problem=kreska pseudotaktowa	!	!	!	!	!
.	.	2c/	.	2.c/	-e-	2.g\	.
=25-	=25-	=25-	=25-	=25-	=25-	=25-	=25-
*	*	*custos:G	*	*	*	*	*
1D/	-ſon:	1F/	.	.	.	.	.
.	.	.	.	8B-/L	-leÿ-	4c/	-eleÿ-
.	.	.	.	8A/J	-ſon:	.	.
.	.	.	.	2B-/	.	2.f\	-ſon.
*	*	*xywh-#390:5854,2855,4318,867	*	*	*	*	*
!	!	!LO:LB:g=original	!	!	!	!	!
*Xlig	*	*	*	*	*	*	*
1C/	.	1G/	.	1c\	.	.	.
.	.	.	.	.	.	8e\L	.
.	.	.	.	.	.	8d\J	.
!	!	!	!	!	!	!LO:TX:t=P:problem=kreska pseudotaktowa	!
.	.	.	.	.	.	2e\	.
=26-	=26-	=26-	=26-	=26-	=26-	=26-	=26-
*	*	*	*	*	*	*custos:f	*
!LO:TX:t=P:problem=kreska pseudotaktowa	!	!LO:TX:t=P:problem=kreska pseudotaktowa	!	!LO:TX:t=P:problem=kreska pseudotaktowa	!	!	!
0F\;<	.	0A/;	-ſon	0c\;<	.	0f\;<	.
!	!	!	!	!	!	!LO:LB:g=original	!
=27||	=27||	=27||	=27||	=27||	=27||	=27||	=27||
*	*	*	*	*	*	*xywh-#4:5656,2950,4324,845	*
*M2/1	*	*M2/1	*	*M2/1	*	*M2/1	*
*met(C|)	*	*met(C|)	*	*met(C|)	*	*met(C|)	*
00r	.	1F/	Chri-	0r	.	1.f\	Chri-
.	.	2.A/	.	.	.	.	.
.	.	.	.	.	.	4e\	.
!	!	!LO:TX:t=P:problem=kreska pseudotaktowa	!	!	!	!LO:TX:t=P:problem=kreska pseudotaktowa	!
.	.	4B-/	-ſte	.	.	4d\	-ſte
=28-	=28-	=28-	=28-	=28-	=28-	=28-	=28-
!	!	!	!	!LO:TX:t=P:problem=kreska pseudotaktowa	!	!	!
.	.	2c/	.	1r	.	2e\	.
.	.	2.d/	.	.	.	2.f\	.
.	.	.	.	1.f\	Chri-	.	.
.	.	4c/	.	.	.	4e\	.
.	.	2.c/	.	.	.	4d\	.
.	.	.	.	.	.	4c/	.
=29-	=29-	=29-	=29-	=29-	=29-	=29-	=29-
0r	.	.	.	.	.	1d\	.
.	.	8B-/L	.	.	.	.	.
.	.	8A/J	.	.	.	.	.
.	.	2B-/	.	4e\	.	.	.
!	!	!	!	!LO:TX:t=P:problem=kreska pseudotaktowa	!	!	!
.	.	.	.	4d\	-ſte	.	.
!	!	!LO:TX:t=P:problem=kreska pseudotaktowa	!	!	!	!LO:TX:t=P:problem=kreska pseudotaktowa	!
.	.	0c\	.	1e\	.	0c\	.
=30-	=30-	=30-	=30-	=30-	=30-	=30-	=30-
!LO:TX:t=P:problem=kreska pseudotaktowa	!	!	!	!	!	!	!
1.F\	Chri-	.	.	2.f\	.	.	.
.	.	.	.	8e\L	.	.	.
.	.	.	.	8d\J	.	.	.
!	!	!	!	!LO:TX:t=P:problem=kreska pseudotaktowa	!	!	!
.	.	1r	.	2c/	.	1r	.
4E/	.	.	.	2.d/	.	.	.
4D/	.	.	.	.	.	.	.
=31-	=31-	=31-	=31-	=31-	=31-	=31-	=31-
2E/	.	0r	.	.	.	2r	.
.	.	.	.	4c/	.	.	.
!	!	!	!	!	!	!LO:TX:t=P:problem=kreska pseudotaktowa	!
2F/	.	.	.	1c\	.	2c/	Chri-
1D/	-ſte	.	.	.	.	1d\	.
*	*	*	*	*custos:c	*	*	*
!	!	!	!	!LO:TX:t=P:problem=kreska pseudotaktowa	!	!	!
.	.	.	.	2B-/	.	.	.
!	!	!	!	!LO:PB:g=original	!	!	!
=32-	=32-	=32-	=32-	=32-	=32-	=32-	=32-
*	*	*	*	*xywh-#194:1220,560,4235,923	*	*	*
!LO:TX:t=P:problem=kreska pseudotaktowa	!	!LO:TX:t=P:problem=kreska pseudotaktowa	!	!LO:TX:t=P:problem=kreska pseudotaktowa	!	!	!
1C/	.	2r	.	1c\	.	2.e\	.
.	.	1c\	Chri-	.	.	.	.
!	!	!	!	!	!	!LO:TX:t=P:problem=kreska pseudotaktowa	!
.	.	.	.	.	.	4f\	.
2r	.	.	.	2r	.	2g\	.
!	!	!LO:TX:t=P:problem=kreska pseudotaktowa	!	!LO:TX:t=P:problem=kreska pseudotaktowa	!	!	!
1c\	Chri-	2c/	-ſte	2c/	Chri-	2e\	.
=33-	=33-	=33-	=33-	=33-	=33-	=33-	=33-
!	!	!	!	!	!	!LO:TX:t=P:problem=kreska pseudotaktowa	!
.	.	1F/	.	1f\	.	1a\	-ſte
4B-\	.	.	.	.	.	.	.
!LO:TX:t=P:problem=kreska pseudotaktowa	!	!	!	!	!	!	!
4A\	.	.	.	.	.	.	.
*	*	*custos:A	*	*	*	*	*
*custos:c	*	*	*	*	*	*	*
!	!	!LO:TX:t=P:problem=kreska pseudotaktowa	!	!	!	!	!
1B-\	.	1G/	.	1d\	.	2.g\	.
!	!	!	!	!	!	!LO:TX:t=P:problem=kreska pseudotaktowa	!
.	.	.	.	.	.	4f\	.
*	*	*xywh-#391:1165,531,4332,867	*	*	*	*	*
!LO:LB:g=original	!	!LO:PB:g=original	!	!	!	!	!
=34-	=34-	=34-	=34-	=34-	=34-	=34-	=34-
*xywh-#563:5753,2837,4233,963	*	*	*	*	*	*	*
!	!	!	!	!LO:TX:t=P:problem=kreska pseudotaktowa	!	!	!
1c\	.	2A/	.	1c\	-ſte	4e\	.
*	*	*	*	*	*	*custos:f	*
.	.	.	.	.	.	4d/	.
*	*	*	*	*	*	*xywh-#5:930,537,4214,894	*
!	!	!	!	!	!	!LO:PB:g=original	!
!	!	!LO:TX:t=P:problem=kreska pseudotaktowa	!	!	!	!	!
.	.	2F/	.	.	.	2.f\	.
!LO:TX:t=P:problem=kreska pseudotaktowa	!	!	!	!	!	!	!
1A\	.	2.c/	.	1r	.	.	.
.	.	.	.	.	.	4e/	.
.	.	.	.	.	.	4d/	.
.	.	8B-/L	.	.	.	4c/	.
.	.	8A/J	.	.	.	.	.
=35-	=35-	=35-	=35-	=35-	=35-	=35-	=35-
!	!	!	!	!	!	!LO:TX:t=P:problem=kreska pseudotaktowa	!
2G/	.	4B-/	.	0r	.	1d\	.
.	.	4c/	.	.	.	.	.
2.B-\	.	2.d/	.	.	.	.	.
.	.	.	.	.	.	2r	.
4A\	.	4c/	.	.	.	.	.
!	!	!LO:TX:t=P:problem=kreska pseudotaktowa	!	!	!	!	!
1A\	.	2A/	.	.	.	2c/	Chri-
=36-	=36-	=36-	=36-	=36-	=36-	=36-	=36-
!	!	!	!	!LO:TX:t=P:problem=kreska pseudotaktowa	!	!	!
.	.	2.B-/	.	1r	.	2d/	.
2G\	.	.	.	.	.	2e\	.
.	.	4A/	.	.	.	.	.
!LO:TX:t=P:problem=kreska pseudotaktowa	!	!LO:TX:t=P:problem=kreska pseudotaktowa	!	!	!	!LO:TX:t=P:problem=kreska pseudotaktowa	!
1A\	-ſte	0F/	.	2r	.	0f\	-ſte
.	.	.	.	1c\	Chri-	.	.
=37-	=37-	=37-	=37-	=37-	=37-	=37-	=37-
2r	.	.	.	.	.	.	.
!LO:TX:t=P:problem=2\right&colon; global	!	!	!	!	!	!	!
2F/	Chri-	.	.	4B-/	.	.	.
!	!	!	!	!LO:TX:t=P:problem=kreska pseudotaktowa	!	!	!
.	.	.	.	4A/	.	.	.
2G/	.	1r	.	2B-/	.	1r	.
2.A\	.	.	.	2c/	.	.	.
=38-	=38-	=38-	=38-	=38-	=38-	=38-	=38-
!	!	!	!	!LO:TX:t=P:problem=kreska pseudotaktowa	!	!	!
.	.	00r	.	1A/	.	2r	.
4G/	.	.	.	.	.	.	.
!LO:TX:t=P:problem=kreska pseudotaktowa	!	!	!	!	!	!	!
2F/	.	.	.	.	.	2.c/	Chri-
2E/	.	.	.	2G/	-ſte	.	.
.	.	.	.	.	.	4B-/	.
2.F/	.	.	.	2c/	.	4A/	.
!	!	!	!	!	!	!LO:TX:t=P:problem=kreska pseudotaktowa	!
.	.	.	.	.	.	4G/	.
=39-	=39-	=39-	=39-	=39-	=39-	=39-	=39-
.	.	.	.	2d/	.	4A/	.
4E/	.	.	.	.	.	4G/	.
4D/	.	.	.	2e/	.	2.c/	.
4C/	.	.	.	.	.	.	.
1D/	-ſte	.	.	1f\	.	.	.
.	.	.	.	.	.	8B-/L	.
.	.	.	.	.	.	8A/J	.
!	!	!	!	!	!	!LO:TX:t=P:problem=kreska pseudotaktowa	!
.	.	.	.	.	.	2B-/	.
=40-	=40-	=40-	=40-	=40-	=40-	=40-	=40-
!LO:TX:t=P:problem=kreska pseudotaktowa	!	!LO:TX:t=P:problem=kreska pseudotaktowa	!	!LO:TX:t=P:problem=kreska pseudotaktowa	!	!	!
0C/	.	2r	.	0e\	.	1c\	.
.	.	1c\	-Chri-	.	.	.	.
.	.	.	.	.	.	2G/	.
!	!	!LO:TX:t=P:problem=kreska pseudotaktowa	!	!	!	!	!
.	.	2c/	-ſte	.	.	1g\	.
=41-	=41-	=41-	=41-	=41-	=41-	=41-	=41-
2r	.	1e\	.	2r	.	.	.
*custos:F	*	*	*	*	*	*custos:a	*
*	*	*	*	*custos:c	*	*	*
!LO:TX:t=P:problem=kreska pseudotaktowa	!	!	!	!	!	!LO:TX:t=P:problem=kreska pseudotaktowa	!
2C/	Chri-	.	.	1c\	Chri-	2g\	-ſte-
*xywh-#564:1441,524,4271,940	*	*	*	*	*	*xywh-#5:944,1305,4242,894	*
!LO:PB:g=original	!	!	!	!	!	!LO:LB:g=original	!
2.F/	.	1.f\	.	.	.	1.a\	.
*	*	*	*	*xywh-#194:1154,1326,4331,947	*	*	*
!	!	!	!	!LO:LB:g=original	!	!	!
!	!	!	!	!LO:TX:t=P:problem=kreska pseudotaktowa	!	!	!
.	.	.	.	2c/	-ſte-	.	.
!LO:TX:t=P:problem=kreska pseudotaktowa	!	!	!	!	!	!	!
4G/	.	.	.	.	.	.	.
=42-	=42-	=42-	=42-	=42-	=42-	=42-	=42-
4A/	.	.	.	2.F/	.	.	.
4B-\	.	.	.	.	.	.	.
1c\	.	4e/	.	.	.	4g\	.
!	!	!	!	!	!	!LO:TX:t=P:problem=kreska pseudotaktowa	!
.	.	4d/	.	4G/	.	4f\	.
!	!	!LO:TX:t=P:problem=kreska pseudotaktowa	!	!	!	!	!
.	.	1c\	.	4A/	.	2e\	.
.	.	.	.	4B-/	.	.	.
!LO:TX:t=P:problem=kreska pseudotaktowa	!	!	!	!LO:TX:t=P:problem=kreska pseudotaktowa	!	!	!
2F/	.	.	.	2c/	.	2f\	.
=43-	=43-	=43-	=43-	=43-	=43-	=43-	=43-
*	*	*custos:f	*	*	*	*	*
2G/	.	2r	.	2B-/	.	2d/	.
*	*	*xywh-#391:1203,1299,4252,886	*	*	*	*	*
2A/	.	1f\	Chri-	1A/	.	2c/	.
1B-\	-ſte	.	.	.	.	1d\	.
!	!	!LO:TX:t=P:problem=kreska pseudotaktowa	!	!	!	!	!
.	.	2g\	.	2G/	.	.	.
=44-	=44-	=44-	=44-	=44-	=44-	=44-	=44-
!LO:TX:t=P:problem=kreska pseudotaktowa	!	!	!	!	!	!LO:TX:t=P:problem=kreska pseudotaktowa	!
0A\	.	2e\	.	1A/	.	0c\	.
.	.	1f\	.	.	.	.	.
!	!	!	!	!LO:TX:t=P:problem=kreska pseudotaktowa	!	!	!
.	.	.	.	0F/	.	.	.
.	.	4e\	.	.	.	.	.
!	!	!LO:TX:t=P:problem=kreska pseudotaktowa	!	!	!	!	!
.	.	4d\	.	.	.	.	.
=45-	=45-	=45-	=45-	=45-	=45-	=45-	=45-
1r	.	1c\	.	.	.	2r	.
.	.	.	.	.	.	1f\	-Chri-
!	!	!LO:TX:t=P:problem=kreska pseudotaktowa	!	!	!	!	!
1.F\	Chri-	2c/	.	2r	.	.	.
*	*	*lig	*	*	*	*	*
!	!	!	!	!	!	!LO:TX:t=P:problem=kreska pseudotaktowa	!
.	.	1A/	.	1F/	-Chri-	2f\	-ſte-
=46-	=46-	=46-	=46-	=46-	=46-	=46-	=46-
.	.	.	.	.	.	1a\	.
*	*	*col	*	*	*	*	*
!	!	!	!	!LO:TX:t=P:problem=kreska pseudotaktowa	!	!	!
4E/	.	2.d\	.	2F/	-ſte	.	.
4D/	.	.	.	.	.	.	.
2E/	.	.	.	2G/	.	2g\	.
!LO:TX:t=P:problem=kreska pseudotaktowa	!	!	!	!	!	!	!
*	*	*Xlig	*	*	*	*	*
.	.	4c/	.	.	.	.	.
*	*	*Xcol	*	*	*	*	*
2F/	.	1c/	-ſte	2A/	.	1f\	.
=47-	=47-	=47-	=47-	=47-	=47-	=47-	=47-
!	!	!	!	!LO:TX:t=P:problem=kreska pseudotaktowa	!	!	!
1D/	-ſte	.	.	1F/	.	.	.
.	.	2B-/	.	.	.	4e\	.
.	.	.	.	.	.	4d\	.
!LO:TX:t=P:problem=kreska pseudotaktowa	!	!LO:TX:t=P:problem=kreska pseudotaktowa	!	!	!	!LO:TX:t=P:problem=kreska pseudotaktowa	!
1C/	.	0c\	.	1r	.	1e\	.
=48-	=48-	=48-	=48-	=48-	=48-	=48-	=48-
1.c\	Chri-	.	.	2r	.	2r	.
.	.	.	.	1F/	Chri-	1a\	-Chri-
.	.	1r	.	.	.	.	.
!	!	!	!	!LO:TX:t=P:problem=kreska pseudotaktowa	!	!	!
4B-\	.	.	.	2F/	-ſte	2a\	-ſte
4A\	.	.	.	.	.	.	.
=49-	=49-	=49-	=49-	=49-	=49-	=49-	=49-
2B-\	.	2r	.	2G/	.	2g\	.
*	*	*	*	*custos	*	*	*
!	!	!	!	!	!	!LO:TX:t=P:problem=kreska pseudotaktowa	!
2c\	.	1c\	Chri-	2A/	.	2e\	.
*custos:F	*	*	*	*	*	*	*
*	*	*	*	*xywh-#194:1192,2026,4288,928	*	*	*
!	!	!	!	!LO:LB:g=original	!	!	!
!LO:TX:t=P:problem=kreska pseudotaktowa	!	!	!	!LO:TX:t=P:problem=kreska pseudotaktowa	!	!	!
1A\	-ſte-	.	.	1F/	.	2.f\	.
!	!	!LO:TX:t=P:problem=kreska pseudotaktowa	!	!	!	!	!
.	.	2c/	-ſte	.	.	.	.
*	*	*	*	*	*	*custos:a	*
.	.	.	.	.	.	4g\	.
!LO:LB:g=original	!	!	!	!	!	!LO:LB:g=original	!
=50-	=50-	=50-	=50-	=50-	=50-	=50-	=50-
*xywh-#564:1403,1275,4281,935	*	*	*	*	*	*xywh-#5:921,2087,4195,871	*
!LO:TX:t=P:problem=kreska pseudotaktowa	!	!	!	!	!	!	!
1F\	.	1A/	.	2r	.	0a\	.
.	.	.	.	1f\	Chri-	.	.
!	!	!LO:TX:t=P:problem=kreska pseudotaktowa	!	!	!	!	!
2r	.	1F/	.	.	.	.	.
1c\	.	.	.	4e\	.	.	.
!	!	!	!	!LO:TX:t=P:problem=kreska pseudotaktowa	!	!	!
.	.	.	.	4d\	.	.	.
=51-	=51-	=51-	=51-	=51-	=51-	=51-	=51-
!	!	!	!	!	!	!LO:TX:t=P:problem=kreska pseudotaktowa	!
.	.	2r	.	1e\	.	1g\	.
!LO:TX:t=P:problem=kreska pseudotaktowa	!	!	!	!	!	!	!
2c\	.	1c\	Chri-	.	.	.	.
0F\	-e-	.	.	1.f\	-ſte	1.a\	.
*	*	*custos:A	*	*	*	*	*
!	!	!LO:TX:t=P:problem=kreska pseudotaktowa	!	!	!	!	!
.	.	2c/	.	.	.	.	.
!	!	!LO:LB:g=original	!	!	!	!	!
=52-	=52-	=52-	=52-	=52-	=52-	=52-	=52-
*	*	*xywh-#391:1217,2105,4285,834	*	*	*	*	*
.	.	1.A/	-ele-	.	.	.	.
.	.	.	.	4e\	.	4g\	ele
!	!	!	!	!LO:TX:t=P:problem=kreska pseudotaktowa	!	!	!
.	.	.	.	4d\	.	4f\	-y-
1A\	-le-	.	.	2c/	.	2e\	-ſon.
.	.	2F/	-ÿ-	2A/	e-	1f\	.
=53-	=53-	=53-	=53-	=53-	=53-	=53-	=53-
!LO:TX:t=P:problem=kreska pseudotaktowa	!	!	!	!	!	!	!
*	*	*	*	*lig	*	*	*
1G\	.	1G/	-ſon	1B-/	.	.	.
.	.	.	.	.	.	2e\	.
1F\	.	00A/;	.	1c\	.	00f\;<	.
*	*	*	*	*Xlig	*	*	*
=54-	=54-	=54-	=54-	=54-	=54-	=54-	=54-
1.D/	.	.	.	1.d\	-le-	.	.
2E/	-ÿ-	.	.	2c/	-ÿ-	.	.
=55-	=55-	=55-	=55-	=55-	=55-	=55-	=55-
!LO:TX:t=P:problem=kreska pseudotaktowa	!	!	!	!LO:TX:t=P:problem=kreska pseudotaktowa	!	!	!
!LO:N:vis=0	!	!	!	!LO:N:vis=0	!	!	!
1F\;<	-ſon:	.	.	1c\;<	-ſon:	.	.
=56||	=56||	=56||	=56||	=56||	=56||	=56||	=56||
*M2/1	*	*M2/1	*	*M2/1	*	*M2/1	*
*met(C|)	*	*met(C|)	*	*met(C|)	*	*met(C|)	*
0c\	Kÿ-	00r	.	0r	.	00r	.
=57-	=57-	=57-	=57-	=57-	=57-	=57-	=57-
!LO:TX:t=P:problem=kreska pseudotaktowa	!	!	!	!LO:TX:t=P:problem=kreska pseudotaktowa	!	!	!
1F\	-ri-	.	.	1.f\	Kÿ-	.	.
1F\	-e-	.	.	.	.	.	.
.	.	.	.	4e\	ri-	.	.
!	!	!	!	!LO:TX:t=P:problem=kreska pseudotaktowa	!	!	!
.	.	.	.	4d\	-e	.	.
=58-	=58-	=58-	=58-	=58-	=58-	=58-	=58-
*	*	*	*	*custos:d	*	*	*
1.G\	.	00r	.	2e\	.	00r	.
*	*	*	*	*xywh-#194:1135,2740,4293,947	*	*	*
!	!	!	!	!LO:LB:g=original	!	!	!
.	.	.	.	2.d/	.	.	.
.	.	.	.	4c/	.	.	.
4F/	.	.	.	4A/	.	.	.
!LO:TX:t=P:problem=kreska pseudotaktowa	!	!	!	!LO:TX:t=P:problem=kreska pseudotaktowa	!	!	!
4G/	.	.	.	4B-/	.	.	.
=59-	=59-	=59-	=59-	=59-	=59-	=59-	=59-
*custos:B-	*	*	*	*	*	*	*
2A\	.	.	.	2c/	.	.	.
*xywh-#564:1427,2041,4304,907	*	*	*	*	*	*	*
!LO:LB:g=original	!	!	!	!	!	!	!
2.B-\	.	.	.	2.d/	.	.	.
4A\	.	.	.	4c/	.	.	.
1A\	.	.	.	4B-/	.	.	.
!	!	!	!	!LO:TX:t=P:problem=kreska pseudotaktowa	!	!	!
.	.	.	.	4A/	.	.	.
=60-	=60-	=60-	=60-	=60-	=60-	=60-	=60-
!	!	!LO:TX:t=P:problem=kreska pseudotaktowa	!	!	!	!	!
.	.	1r	.	1B-/	.	0r	.
!LO:TX:t=P:problem=kreska pseudotaktowa	!	!	!	!	!	!	!
2G\	.	.	.	.	.	.	.
2A\	.	1c\	Kÿ-	2.A/	.	.	.
2.F/	.	.	.	.	.	.	.
!	!	!	!	!LO:TX:t=P:problem=kreska pseudotaktowa	!	!	!
.	.	.	.	4G/	.	.	.
=61-	=61-	=61-	=61-	=61-	=61-	=61-	=61-
!	!	!LO:TX:t=P:problem=kreska pseudotaktowa	!	!	!	!	!
.	.	1c\	-ri-	4A/	.	1.f\	Kÿ-
4E/	.	.	.	4B-/	.	.	.
4D/	.	.	.	1c\	.	.	.
*custos:D	*	*	*	*	*	*	*
4C/	.	.	.	.	.	.	.
1D/	.	1F/	-e	.	.	.	.
.	.	.	.	2B-/	.	4e\	-ri-
!	!	!	!	!	!	!LO:TX:t=P:problem=kreska pseudotaktowa	!
.	.	.	.	.	.	4d\	-e
=62-	=62-	=62-	=62-	=62-	=62-	=62-	=62-
!LO:TX:t=P:problem=kreska pseudotaktowa	!	!	!	!LO:TX:t=P:problem=kreska pseudotaktowa	!	!	!
1C/	.	1.G/	.	1c\	.	1e\	.
0r	.	.	.	2r	.	1d\	.
.	.	4G/	.	2d/	Kÿ-	.	.
.	.	4F/	.	.	.	.	.
=63-	=63-	=63-	=63-	=63-	=63-	=63-	=63-
!	!	!LO:TX:t=P:problem=kreska pseudotaktowa	!	!	!	!	!
.	.	2A/	.	1.f\	.	2c/	.
.	.	2.B-/	.	.	.	1d\	.
2r	.	.	.	.	.	.	.
.	.	4A/	.	.	.	.	.
!LO:TX:t=P:problem=kreska pseudotaktowa	!	!	!	!LO:TX:t=P:problem=kreska pseudotaktowa	!	!LO:TX:t=P:problem=kreska pseudotaktowa	!
2C/	-Kÿ-	1A/	.	2e\	-ri-	2c/	.
=64-	=64-	=64-	=64-	=64-	=64-	=64-	=64-
*	*	*	*	*custos:g	*	*	*
2D/	.	.	.	2f\	.	1B-/	.
*	*	*	*	*xywh-#194:5918,612,4297,985	*	*	*
!	!	!	!	!LO:PB:g=original	!	!	!
!	!	!LO:TX:t=P:problem=kreska pseudotaktowa	!	!	!	!	!
2E/	.	2G/	.	2g\	.	.	.
*	*	*custos:F	*	*	*	*	*
*	*	*	*	*	*	*custos:f	*
!	!	!LO:TX:t=P:problem=kreska pseudotaktowa	!	!LO:TX:t=P:problem=kreska pseudotaktowa	!	!	!
2.F/	.	1A/	.	1c\	-e	2A/	.
*	*	*	*	*	*	*xywh-#5:897,2835,4195,875	*
!	!	!	!	!	!	!LO:LB:g=original	!
.	.	.	.	.	.	1f\	.
!LO:TX:t=P:problem=kreska pseudotaktowa	!	!	!	!	!	!	!
4G\	.	.	.	.	.	.	.
!	!	!LO:LB:g=original	!	!	!	!	!
=65-	=65-	=65-	=65-	=65-	=65-	=65-	=65-
*	*	*xywh-#391:1231,2840,4219,815	*	*	*	*	*
!	!	!LO:TX:t=P:problem=kreska pseudotaktowa	!	!	!	!	!
2A\	.	1F/	.	2r	.	.	.
!	!	!	!	!	!	!LO:TX:t=P:problem=kreska pseudotaktowa	!
1c\	.	.	.	2c/	Kÿ-	2f\	.
!	!	!	!	!LO:TX:t=P:problem=kreska pseudotaktowa	!	!	!
.	.	2r	.	1e\	.	1g\	.
2c\	-ri-	1c/	-Kÿ-	.	.	.	.
=66-	=66-	=66-	=66-	=66-	=66-	=66-	=66-
*custos:G	*	*	*	*	*	*	*
!LO:TX:t=P:problem=kreska pseudotaktowa	!	!	!	!	!	!	!
1F\	-e	.	.	1f\	.	1a\	.
!	!	!LO:TX:t=P:problem=kreska pseudotaktowa	!	!	!	!	!
.	.	2c/	-ri-	.	.	.	.
*xywh-#564:1460,2764,4233,992	*	*	*	*	*	*	*
!LO:LB:g=original	!	!	!	!	!	!	!
1G\	.	2.B-/	-e	1d\	-ri-	1g\	.
.	.	8A/L	.	.	.	.	.
.	.	8G/J	.	.	.	.	.
=67-	=67-	=67-	=67-	=67-	=67-	=67-	=67-
!LO:TX:t=P:problem=kreska pseudotaktowa	!	!	!	!LO:TX:t=P:problem=kreska pseudotaktowa	!	!	!
1A\	.	2F/	.	1c\	-e	2r	.
!	!	!	!	!	!	!LO:TX:t=P:problem=kreska pseudotaktowa	!
.	.	1c\	.	.	.	2e\	Kÿ-
2r	.	.	.	0r	.	1.a\	.
!	!	!LO:TX:t=P:problem=kreska pseudotaktowa	!	!	!	!	!
1F\	Kÿ-	2c/	.	.	.	.	.
=68-	=68-	=68-	=68-	=68-	=68-	=68-	=68-
.	.	1d\	.	.	.	.	.
!LO:TX:t=P:problem=kreska pseudotaktowa	!	!	!	!	!	!	!
2F/	-ri-	.	.	.	.	2a\	-ri-
2G/	.	1e\	.	2r	.	2g\	-e
!	!	!	!	!	!	!LO:TX:t=P:problem=kreska pseudotaktowa	!
1A\	.	.	.	1c\	Kÿ-	2e/	.
=69-	=69-	=69-	=69-	=69-	=69-	=69-	=69-
!	!	!LO:TX:t=P:problem=kreska pseudotaktowa	!	!	!	!	!
.	.	1c\	.	.	.	1a\	.
!	!	!	!	!LO:TX:t=P:problem=kreska pseudotaktowa	!	!	!
4G/	.	.	.	2c/	-ri-	.	.
!LO:TX:t=P:problem=kreska pseudotaktowa	!	!	!	!	!	!	!
4F/	.	.	.	.	.	.	.
2E/	.	1r	.	2.e\	.	2.g\	.
1c\	.	.	.	.	.	.	.
.	.	.	.	4f\	.	4f\	.
=70-	=70-	=70-	=70-	=70-	=70-	=70-	=70-
!	!	!	!	!LO:TX:t=P:problem=kreska pseudotaktowa	!	!	!
.	.	2r	.	0.g\	-e	4e\	.
.	.	.	.	.	.	4d\	.
!LO:TX:t=P:problem=kreska pseudotaktowa	!	!LO:TX:t=P:problem=kreska pseudotaktowa	!	!	!	!LO:TX:t=P:problem=kreska pseudotaktowa	!
2c\	-e-	2c/	Kÿ-	.	.	2e\	.
2B-\	.	2d\	.	.	.	2d/	.
2c\	.	2.e\	-ri-	.	.	1c\	.
=71-	=71-	=71-	=71-	=71-	=71-	=71-	=71-
1G\	.	.	.	.	.	.	.
.	.	4f\	.	.	.	.	.
.	.	4g\	.	.	.	2B-/	.
!	!	!LO:TX:t=P:problem=kreska pseudotaktowa	!	!	!	!	!
.	.	4e\	.	.	.	.	.
*	*	*custos:e	*	*	*	*	*
!	!	!	!	!	!	!LO:TX:t=P:problem=kreska pseudotaktowa	!
2.A\	.	2f\	.	2r	.	1c\	.
*	*	*xywh-#391:5706,513,4271,900	*	*	*	*	*
!	!	!LO:PB:g=original	!	!	!	!	!
.	.	1e\	-e	1c\	Kÿ-	.	.
4B-\	.	.	.	.	.	.	.
=72-	=72-	=72-	=72-	=72-	=72-	=72-	=72-
!LO:TX:t=P:problem=kreska pseudotaktowa	!	!	!	!	!	!	!
1c\	.	.	.	.	.	2r	.
*	*	*	*	*	*	*custos:G	*
!	!	!	!	!LO:TX:t=P:problem=kreska pseudotaktowa	!	!	!
.	.	4d/	.	2c/	-ri-	1F/	-Kÿ-
!	!	!LO:TX:t=P:problem=kreska pseudotaktowa	!	!	!	!	!
.	.	4c/	.	.	.	.	.
0r	.	1d\	.	1f\	-e	.	.
*	*	*	*	*	*	*xywh-#5:5602,637,4303,880	*
!	!	!	!	!	!	!LO:PB:g=original	!
!	!	!	!	!	!	!LO:TX:t=P:problem=kreska pseudotaktowa	!
.	.	.	.	.	.	2G/	.
=73-	=73-	=73-	=73-	=73-	=73-	=73-	=73-
*	*	*	*	*custos:e	*	*	*
!	!	!LO:TX:t=P:problem=kreska pseudotaktowa	!	!LO:TX:t=P:problem=kreska pseudotaktowa	!	!	!
.	.	1c\	.	1f\	.	2.A/	-ri-
.	.	.	.	.	.	4B-/	.
*	*	*	*	*xywh-#194:5937,1378,4235,899	*	*	*
!	!	!	!	!	!	!LO:TX:t=P:problem=kreska pseudotaktowa	!
!	!	!	!	!LO:LB:g=original	!	!	!
2r	.	2r	.	1e\	.	1c\	-e
1C/	-Kÿ-	1c\	-Kÿ-	.	.	.	.
=74-	=74-	=74-	=74-	=74-	=74-	=74-	=74-
.	.	.	.	2r	.	2r	.
!LO:TX:t=P:problem=kreska pseudotaktowa	!	!LO:TX:t=P:problem=kreska pseudotaktowa	!	!LO:TX:t=P:problem=cztery semibreves przekreślone - oznaczenie synkopy	!	!	!
2C/	-ri-	2c/	-ri-	1c\	Kÿ-	2g\	Kÿ-
*custos:G	*	*	*	*	*	*	*
!LO:TX:t=P:problem=kreska pseudotaktowa	!	!	!	!	!	!	!
1F\	.	1A/	-e	.	.	1a\	.
.	.	.	.	1d\	.	.	.
!LO:PB:g=original	!	!	!	!	!	!	!
=75-	=75-	=75-	=75-	=75-	=75-	=75-	=75-
*xywh-#564:5723,632,4200,883	*	*	*	*	*	*	*
!	!	!	!	!	!	!LO:TX:t=P:problem=kreska pseudotaktowa	!
1G\	.	1B-/	.	.	.	1g\	.
.	.	.	.	1e\	.	.	.
!	!	!LO:TX:t=P:problem=kreska pseudotaktowa	!	!	!	!	!
1A\	.	0c\	.	.	.	2e\	-ri-
.	.	.	.	1f\	.	1a\	-e
=76-	=76-	=76-	=76-	=76-	=76-	=76-	=76-
!LO:TX:t=P:problem=kreska pseudotaktowa	!	!	!	!	!	!	!
1F\	.	.	.	.	.	.	.
.	.	.	.	4e\	.	4g\	.
!	!	!	!	!LO:TX:t=P:problem=kreska pseudotaktowa	!	!LO:TX:t=P:problem=kreska pseudotaktowa	!
.	.	.	.	4d\	.	4f\	.
2.c\	-e	2r	.	2.e\	-ri-	1g\	.
.	.	1c\	Kÿ-	.	.	.	.
4B-\	.	.	.	4d/	.	.	.
=77-	=77-	=77-	=77-	=77-	=77-	=77-	=77-
2A\	.	.	.	2c/	.	1.a\	.
!LO:TX:t=P:problem=kreska pseudotaktowa	!	!	!	!LO:TX:t=P:problem=kreska pseudotaktowa	!	!	!
2G/	.	2.d/	.	2B-/	.	.	.
2F/	.	.	.	2A/	.	.	.
.	.	4c/	.	.	.	.	.
2E/	.	1c\	-ri-	2c/	.	2g\	.
=78-	=78-	=78-	=78-	=78-	=78-	=78-	=78-
!	!	!	!	!LO:TX:t=P:problem=kreska pseudotaktowa	!	!	!
1D/	.	.	.	1d\	.	1f\	.
!	!	!LO:TX:t=P:problem=kreska pseudotaktowa	!	!	!	!	!
.	.	2B-/	.	.	.	.	.
!LO:TX:t=P:problem=kreska pseudotaktowa	!	!	!	!	!	!LO:TX:t=P:problem=kreska pseudotaktowa	!
1C/	.	2c/	-e-	2G/	.	1e\	.
!	!	!LO:TX:t=P:problem=kreska pseudotaktowa	!	!	!	!	!
.	.	2G/	.	2.c/	.	.	.
=79-	=79-	=79-	=79-	=79-	=79-	=79-	=79-
2r	.	2.A/	.	.	.	2r	.
.	.	.	.	4B-/	.	.	.
1F\	e-	.	.	4A/	.	1a\	.
!	!	!	!	!LO:TX:t=P:problem=kreska pseudotaktowa	!	!	!
.	.	4B-/	.	4G/	.	.	.
*	*	*custos:d	*	*custos:f	*	*	*
.	.	2c/	.	2F/	.	.	.
*	*	*xywh-#391:5725,1323,4271,862	*	*xywh-#194:5894,2121,4269,923	*	*	*
!	!	!LO:LB:g=original	!	!LO:LB:g=original	!	!	!
!	!	!LO:TX:t=P:problem=kreska pseudotaktowa	!	!	!	!LO:TX:t=P:problem=kreska pseudotaktowa	!
2D/	.	2d/	-e-	2f\	-e	2a\	ele -
=80-	=80-	=80-	=80-	=80-	=80-	=80-	=80-
2E-X/	.	2B-/	-le-	2e-X\	.	2g\	-ÿ-
!	!	!	!	!LO:TX:t=P:problem=kreska pseudotaktowa	!	!	!
2F/	.	2A/	-ÿ-	2d\	.	2.f\	-ſon.
1C/	-leÿ-	1G/	-ſon	1.c\	.	.	.
.	.	.	.	.	.	8e/L	.
.	.	.	.	.	.	8d/J	.
.	.	.	.	.	.	2e\	.
=81-	=81-	=81-	=81-	=81-	=81-	=81-	=81-
00F\;<	-ſon:	00F/;	.	.	.	00f\;<	.
.	.	.	.	4B-/	eley-	.	.
.	.	.	.	4A/	.	.	.
.	.	.	.	1d\	.	.	.
=82-	=82-	=82-	=82-	=82-	=82-	=82-	=82-
.	.	.	.	0c\;<	-ſon	.	.
==	==	==	==	==	==	==	==
*-	*-	*-	*-	*-	*-	*-	*-
!!!system-decoration: [(s1,s2,s3,s4)]
!!!RDF**kern: > = above
!!!RDF**kern: < = below
!!!ENC: Mateusz Solarz
!!!END: 2022-01-10
!!!ENC: Leszek Kubiak
!!!END: 2022-01-26
!!!YEC: Copyright 2022 Narodowy Instytut Fryderyka Chopina (https://polishscores.org)
!!!YEM: Licence CC BY 4.0 (https://creativecommons.org/licenses/by/4.0)
!!!IIIF: https://repozytorium.nifc.pl/islandora/object/pl-kk%3A1/datastream/IIIF/view
